packages/core/src/svgs/mx.svg

<svg width="24" height="24" viewBox="0 0 24 24" fill="none" xmlns="http://www.w3.org/2000/svg">
<g clip-path="url(#clip0_31_14529)">
<path d="M0 0H24V24H0V0Z" fill="#F0F3FA"/>
<path d="M7.65867 7.41427C7.82381 7.11499 8.06617 6.86547 8.36052 6.6917C8.65487 6.51793 8.99043 6.42627 9.33224 6.42627C9.67406 6.42627 10.0096 6.51793 10.304 6.6917C10.5983 6.86547 10.8407 7.11499 11.0058 7.41427L16.2644 16.7143H5.8501C4.3201 16.7143 3.36439 15.0214 4.12725 13.6671L7.65867 7.41427Z" fill="#1977F3"/>
<path d="M16.3415 7.41427C16.1764 7.11499 15.934 6.86547 15.6397 6.6917C15.3453 6.51793 15.0098 6.42627 14.668 6.42627C14.3261 6.42627 13.9906 6.51793 13.6962 6.6917C13.4019 6.86547 13.1595 7.11499 12.9944 7.41427L9.26582 14.0143C8.58439 15.2143 9.43296 16.7143 10.7872 16.7143H18.1501C19.6801 16.7143 20.6358 15.0214 19.873 13.6671L16.3415 7.41427Z" fill="#002F81"/>
<path d="M10.7872 16.7142H16.2643L12 9.17139L9.26144 14.0142C8.5843 15.2142 9.43287 16.7142 10.7872 16.7142Z" fill="url(#paint0_linear_31_14529)"/>
</g>
<defs>
<linearGradient id="paint0_linear_31_14529" x1="9.31287" y1="15.1714" x2="17.5972" y2="15.1714" gradientUnits="userSpaceOnUse">
<stop offset="0.12" stop-color="#1C6AD9"/>
<stop offset="0.76" stop-color="#1C6AD9" stop-opacity="0"/>
</linearGradient>
<clipPath id="clip0_31_14529">
<rect width="24" height="24" fill="white"/>
</clipPath>
</defs>
</svg>

<svg xmlns="http://www.w3.org/2000/svg" width="24" height="24" fill="none" viewBox="0 0 24 24"><g clip-path="url(#a)"><path fill="#F0F3FA" d="M0 0h24v24H0z"/><path fill="#1977F3" d="M7.659 7.414a1.911 1.911 0 0 1 3.347 0l5.258 9.3H5.85c-1.53 0-2.486-1.693-1.723-3.047z"/><path fill="#002F81" d="M16.342 7.414a1.911 1.911 0 0 0-3.348 0l-3.728 6.6c-.682 1.2.167 2.7 1.521 2.7h7.363c1.53 0 2.486-1.693 1.723-3.047z"/><path fill="url(#b)" d="M10.787 16.714h5.477L12 9.171l-2.739 4.843c-.677 1.2.172 2.7 1.526 2.7"/></g><defs><linearGradient id="b" x1="9.313" x2="17.597" y1="15.171" y2="15.171" gradientUnits="userSpaceOnUse"><stop offset=".12" stop-color="#1C6AD9"/><stop offset=".76" stop-color="#1C6AD9" stop-opacity="0"/></linearGradient><clipPath id="a"><path fill="#fff" d="M0 0h24v24H0z"/></clipPath></defs></svg>
